!!!!SEGMENT: pl-kk--kk-i-10--021-003_anonim-missa-paschalis-patrem.krn
!!!id: 16xx:1219
!!!COM: Anonim
!!!OTL: Missa Paschalis – Patrem
!!!PDT:
!!!SMS-siglum: PL-Kk
!!!SMS-shelfmark: Kk.I.10
!!!NIFC-rismID: 1001154021
!!!URL-scan: http://repozytorium.nifc.pl/skany/pl-kk-nut--i-10
!!!ONB-nifc: UWAGA: części Mszy: 1. Kyrie, 2. Et in terra, 3. Patrem, 4. Sanctus, 5. Agnus Dei. A (skan 0035-0038), T (0083-0087), B (0133-0136). W księdze II zaklejone częściowo papierem fragmenty zapisanej partii T. Następny utwór: Missa alia Paschalis
!!!SMS-variant:
!!!SMS-altvar:
**kern	**text	**kern	**text	**kern	**text
*part3	*part3	*part2	*part2	*part1	*part1
*staff3	*staff3	*staff2	*staff2	*staff1	*staff1
*I"Bassus.	*	*I"Tenor	*	*I"Altus.	*
*I'B	*	*I'T	*	*I'A	*
*clefF4	*	*clefC4	*	*clefC3	*
*k[]	*	*k[]	*	*k[]	*
*M3/2	*	*M3/2	*	*M3/2	*
=1-	=1-	=1-	=1-	=1-	=1-
2D/	Pa-	2d\	Pa-	2f\	Pa-
2D/	-tre(m)	2d\	-tre(m)	2f\	-tre(m)
2GG/	om-	2c\	om-	2g\	om-
=2-	=2-	=2-	=2-	=2-	=2-
1D	-ni-	1d	-ni-	1f#X	-ni-
2AA/	-po-	2c\	-po-	2e\	-po-
=3-	=3-	=3-	=3-	=3-	=3-
2.GG/	-ten-	2.B\	-ten-	1.g	-ten-
4AA/	.	4c\	.	.	.
4BB/	.	2d\	.	.	.
4C/	.	.	.	.	.
=4-	=4-	=4-	=4-	=4-	=4-
1.D	-te	1d	.	1.fny	-tem
.	.	2A/	-te(m)	.	.
!LO:LB:g=original	!	!	!	!	!
=5-	=5-	=5-	=5-	=5-	=5-
*M2/1	*	*M2/1	*	*M2/1	*
*met(C|)	*	*met(C|)	*	*met(C|)	*
2D/	Fac-	2A/	Fac-	0r	.
4BB/	-to-	4B\	-to-	.	.
4BB/	-re(m)	4B\	-re(m)	.	.
8AA/L	cae-	2c\	Cae-	.	.
8BB/	.	.	.	.	.
8C/	.	.	.	.	.
8D/J	.	.	.	.	.
4E\	.	4B\	.	.	.
4E\	-li	4B\	-li	.	.
=6-	=6-	=6-	=6-	=6-	=6-
(4F\	et	4A\	et	1r	.
4D/)	.	8d\L	ter-	.	.
.	.	8c\J	.	.	.
2E\	ter-	8B\L	.	.	.
.	.	8A\J	.	.	.
!	!	!LO:SIC:v:t=custos A	!	!	!
.	.	4B\	.	.	.
!	!	!LO:LB:g=original	!	!LO:LB:g=original	!
=7-	=7-	=7-	=7-	=7-	=7-
*M3/2	*	*M3/2	*	*M3/2	*
2AA/	-rae	2A/	-rae	2r	.
2D/	Vi-	2d\	Vi-	2f\	Vi-
2AA/	-ſi-	2c\	-ſi-	2f\	-ſi-
=8-	=8-	=8-	=8-	=8-	=8-
2.C/	-bi-	2.c\	-bi-	2.e\	-bi-
4C/	-li-	4c\	-li-	4e\	-li-
2GG/	-um	2c\	-u(m)	2f\	-u(m)
=9-	=9-	=9-	=9-	=9-	=9-
1C	om-	1c	om-	(2g\	om-
.	.	.	.	2e\)	.
2D/	-ni-	2B\	-ni-	2d\	-ni-
=10-	=10-	=10-	=10-	=10-	=10-
2D/	-u(m)	2A/	-u(m)	2d\	-um
(4D/	et	2A/	et	2f\	et
4E/)	.	.	.	.	.
(4F\	in-	2A/	in-	2d\	in-
4G\)	.	.	.	.	.
=11-	=11-	=11-	=11-	=11-	=11-
1A	-Vi-	2A/	-Vi-	2.c\	-vi-
.	.	(2c\	-ſi-	.	.
.	.	.	.	4d\	.
!LO:SIC:v:t=custos F	!	!	!	!	!
2E\	-ſi-	2A/)	.	2e\	.
!LO:PB:g=original	!	!	!	!	!
=12-	=12-	=12-	=12-	=12-	=12-
2F\	-bi-	2d\	-bi-	2d\	-ſi-
2G\	.	2.e\	.	2.d\	-bi-
2A\	-li-	.	.	.	.
.	.	4A/	-li-	4c/	-li-
=13-	=13-	=13-	=13-	=13-	=13-
*M2/1	*	*M2/1	*	*M2/1	*
*met(C|)	*	*met(C|)	*	*met(C|)	*
4D/	-um	4A/	-um	4d\	-um
2D/	Et	2d\	Et	2f\	et
4D/	in	4d\	in	4f\	in
4D/	V-	4d\	U-	4f\	U-
4AA/	-nu(m)	4e\	-nu(m)	4e\	-nu(m)
4.E\	Do-	4.c\	Do-	4.e\	[Do-
!	!	!LO:SIC:v:t=custos B	!	!	!
8E\	-(mi)-	8B\	-mi-	8e\	-mi]-
!	!	!LO:LB:g=original	!	!LO:PB:g=original	!
=14-	=14-	=14-	=14-	=14-	=14-
4E\	-nu(m)	4B\	-nu(m)	4e\	-nu(m)
2C/	Je-	2c\	Je-	4.e\	Je-
.	.	.	.	8e\	-ſu(m)
4GG/	-su(m)	4d\	-ſu(m)	2g\	Chri-
1D	X-	4.d\	Chri-	.	.
!	!	!	!	!LO:TX:a:t=P:problem:# above	!
.	.	.	.	8f#X\L	.
.	.	16c\LL	.	8e\J	.
.	.	16B\JJ	.	.	.
!	!	!	!	!LO:TX:a:t=P:problem:# above	!
.	.	4A\	.	2f#X\	.
.	.	4d\	.	.	.
=15-	=15-	=15-	=15-	=15-	=15-
4GG/	-um	4d\	-ſtu(m)	4g\	-ſtu(m)
4.C/	Fi-	4.c\	Fi-	4.g\	Fi-
8C/	-li-	8c\	-li-	8g\	-li-
4BB/	-um	4d\	-u(m)	4g\	-u(m)
4C/	De-	2c\	De-	4e\	De-
4AA/	-i	.	.	4fny\	-i
4BB-X/	V-	2B-X\	-i	8f\	V-
.	.	.	.	8f\	-ni-
4GG/	-ni-	.	.	2g\	-ge-
=16-	=16-	=16-	=16-	=16-	=16-
2.AA/	-ge-	4r	.	.	.
.	.	8d\	U-	4f\	.
.	.	8d\	-ni-	.	.
.	.	4.e\	-ge-	4.e\	.
4AA/	-ni-	.	.	.	.
.	.	8A/	-ni-	8e\	-ni-
4D\	-tu(m)	4A/	-tu(m)	2d\	-tu(m)
8D/	et	8d\	et	.	.
8D/	Ex	8Bny\	ex	.	.
!LO:LB:g=original	!	!	!	!	!
4BB-X/	Pa-	4c\	Pa-	2r	.
4C/	-tre	4c\	-tre	.	.
=17-	=17-	=17-	=17-	=17-	=17-
4GG/	na-	2B\	na-	4.g\	et
4GG/	-tu(m)	.	.	.	.
.	.	.	.	8d\	ex
4D/	an-	4A\	-tu(m)	4f\	Pa-
4D/	-te	2d\	an-	4f\	-tre
4.A\	om-	.	.	2e\	na-
.	.	4c\	.	.	.
8A\	-ni-	.	.	.	.
2D/	-a	8d\L	-te	2d\	-tu(m)
.	.	16c\L	.	.	.
.	.	16B\JJ	.	.	.
.	.	8A/L	o-	.	.
.	.	8B/J	.	.	.
!	!	!LO:LB:g=original	!	!	!
=18-	=18-	=18-	=18-	=18-	=18-
4AA/	ſae-	4c\	.	4r	.
4BBny/	.	8B\	-mni-	2g\	an-
.	.	8B\	-a	.	.
4C/	.	4.A/	ſe-	.	.
8.D/	.	.	.	4f\	-te
.	.	8A/	-cu-	.	.
16D/	-cu-	.	.	.	.
4GG/	-la	2G/	-la	8g\L	o-
.	.	.	.	16f\L	.
!	!	!	!	!LO:SIC:v:s=16eJJ\	!
.	.	.	.	16eJJ 16d\	.
4G\	an-	.	.	8d\L	.
.	.	.	.	8e\J	.
!	!	!	!	!LO:LB:g=original	!
2D/	-te	4r	.	4f\	.
.	.	2d\	an-	8f\	-mni-
.	.	.	.	8f\	-a
=19-	=19-	=19-	=19-	=19-	=19-
4.AA/	om-	.	.	4.e\	ſe-
!	!	!LO:TX:a:t=P:problem:# above	!	!	!
.	.	4c#X\	-te	.	.
8AA/	-ni-	.	.	8e\	-cu-
2D\	-a	4.d\	om-	4d\	-la
.	.	.	.	2a\	an-
.	.	8cny\	-ni-	.	.
4E\	an-	4.B\	-a	.	.
4E\	-te	.	.	4g\	.
.	.	16A\LL	.	.	.
.	.	16B\JJ	.	.	.
4.A\	om-	8A\L	se-	8a\L	-te
.	.	8B\	.	16g\L	.
.	.	.	.	16f\JJ	.
.	.	8c\	.	8e\L	o-
8A\	-ni-	8d\J	.	8f\J	.
=20-	=20-	=20-	=20-	=20-	=20-
4E\	-a	4e\	.	4g\	.
4F\	ſe-	2d\	.	8f\	-mni-
.	.	.	.	8f\	-a
4G\	.	.	.	4.e\	ſe-
!LO:SIC:v:t=custos D	!	!	!	!	!
4A\	-cu-	4c\	-cu-	.	.
.	.	.	.	8e\	-cu-
!LO:LB:g=original	!	!	!	!	!
4D/	-la	4d\	-la	4d\	-la
4D/	De-	4A/	De-	4f\	De-
4AA/	-u(m)	4.A/	-u(m)	4.e\	-u(m)
4AA/	de	.	.	.	.
.	.	8A/	de	8e\	de
=21-	=21-	=21-	=21-	=21-	=21-
4D/	De-	4A/	De-	4f\	De-
8D/	-o	8A/	-o	8f\	-o
8D/	lu-	8A/	lu-	8f\	lu-
4D/	-men	4A/	-men	4.f\	-men
4AA/	de	4c\	de	.	.
.	.	.	.	8f\	de
!	!	!LO:LB:g=original	!	!	!
4.C/	lu-	4.c\	lu-	4f\	lu-
.	.	.	.	4e\	-mi-
8C/	-mi-	8c\	-mi-	.	.
4F\	-ne	4c\	-ne	4f\	-ne
2F\	De-	8c\	De-	2f\	De-
.	.	8c\	-u(m)	.	.
=22-	=22-	=22-	=22-	=22-	=22-
.	.	4c\	Ve-	.	.
4D\	-u(m)	4c\	-ru(m)	4f\	-u(m)
!	!	!	!	!LO:LB:g=original	!
2E\	Ve-	2B\	de	2e\	ve-
4AA/	-ru(m)	8c\	De-	4e\	-ru(m)
.	.	8c\	-o	.	.
4AA/	de	8A/	ve-	4r	.
.	.	8B\	.	.	.
4AA/	De-	4c\	.	2r	.
8GG/	-o	4B\	.	.	.
8G\	de	.	.	.	.
=23-	=23-	=23-	=23-	=23-	=23-
2A\	De-	8A/L	.	0r	.
.	.	8G/	.	.	.
.	.	8F/	.	.	.
.	.	8E/J	.	.	.
4B\	-o	8D/L	.	.	.
.	.	8C/	.	.	.
*	*ij	*	*	*	*
4B\	de	8D/	.	.	.
.	.	8E/J	.	.	.
4F\	De-	8F/L	.	.	.
.	.	8C/J	.	.	.
4F\	-o	2F/	.	.	.
*	*Xij	*	*	*	*
2C/	Ve-	.	.	.	.
.	.	4E/	.	.	.
=24-	=24-	=24-	=24-	=24-	=24-
*M3/2	*	*M3/2	*	*M3/2	*
2F\	-ro	2F/	-ro	2r	.
2F\	ge-	2c\	Ge-	2f\	ge-
!	!	!LO:SIC:v:t=custos c	!	!	!
2F\	-ni-	2c\	-ni-	2f\	-ni-
!LO:LB:g=original	!	!LO:PB:g=original	!	!	!
=25-	=25-	=25-	=25-	=25-	=25-
1F	-tu(m)	1c	-tu(m)	1f	-tu(m)
2D/	n(on)	1d\	non	2f\	non
=26-	=26-	=26-	=26-	=26-	=26-
1AA	fac-	.	.	2a\	fac-
.	.	2c#X\	fac-	2a\	-tu(m)
!	!	!	!	!LO:TX:a:t=P:problem:# above	!
2D/	-tu(m)	2d\	-tu(m)	2f#X\	n(on)
=27-	=27-	=27-	=27-	=27-	=27-
!	!	!	!	!LO:TX:a:t=P:problem:# above	!
2.D/	Con-	2.d\	Con-	1f#X	fac-
4D/	-ſub-	4d\	-ſub-	.	.
!	!	!	!	!LO:TX:a:t=P:problem:# above	!
4D/	-ſtan-	4d\	-ſtan-	2f#X\	-tu(m)
4D/	-ti-	4d\	-ti-	.	.
=28-	=28-	=28-	=28-	=28-	=28-
1G	-a-	1d	-a-	2.g\	Con-
.	.	.	.	4g\	-ſub-
2G\	-le(m)	2d\	-le(m)	4g\	-stan-
.	.	.	.	4g\	-ti-
=29-	=29-	=29-	=29-	=29-	=29-
*	*ij	*	*ij	*	*
2.C/	Con-	2.cny\	Con-	(2.g\	-a-
4C/	-ſub-	4c\	-ſub-	4g\)	-le(m)
4C/	-ſtan-	4c\	-ſtan-	(4g\	Con-
4C/	-ti-	4c\	-ti-	4g\)	-ſub-
=30-	=30-	=30-	=30-	=30-	=30-
1F	-a-	1c	-a-	2.fny\	-stan-
.	.	.	.	4f\	-ti-
2F\	-le(m)	2A/	-le(m)	4f\	-a-
.	.	.	.	4f\	-le(m)
*	*Xij	*	*Xij	*	*
=31-	=31-	=31-	=31-	=31-	=31-
2F\	Pa-	1d	Pa-	2a\	P(a)-
2G\	.	.	.	2g\	.
!	!	!LO:TX:a:t=P:problem:# above	!	!	!
2A\	.	2c#X\	.	2e\	.
=32-	=32-	=32-	=32-	=32-	=32-
!	!	!	!	!LO:TX:a:t=P:problem:# above	!
2D/	-tri	2d\	-tri	2f#X\	-tri
!	!	!	!	!LO:TX:a:t=P:problem:# above	!
2D/	per	2d\	per	2f#X\	per
!LO:TX:a:t=P:problem:# above	!	!	!	!	!
2F#X\	que(m)	2d\	q(uem)	2a\	q(u)e(m)
!	!	!	!	!LO:LB:g=original	!
=33-	=33-	=33-	=33-	=33-	=33-
2.G\	o(m-	2.d\	o(m-	2.g\	om-
4G\	-n)i-	4d\	-n)i-	4g\	-ni-
2G\	-a	2d\	-a	2g\	-a
=34-	=34-	=34-	=34-	=34-	=34-
*	*	*	*	*	*ij
2r	.	2r	.	2r	.
2C/	per	2cny\	per	2g\	per
2E\	qu(em)	2c\	que(m)	2g\	quem
!LO:LB:g=original	!	!LO:LB:g=original	!	!	!
=35-	=35-	=35-	=35-	=35-	=35-
2.Fny\	o(m-	2.c\	om-	2.fny\	om-
4F\	-ni)-	4c\	-ni-	4f\	-ni-
2D/	-a	2d\	-a	2f\	-a
*	*	*	*	*	*Xij
=36-	=36-	=36-	=36-	=36-	=36-
1AA	fac-	1d	fac-	1a	fac-
2AA/	-ta	2c#X\	-ta	2e\	-ta
=37-	=37-	=37-	=37-	=37-	=37-
2D/	ſunt	2d\	ſunt	2f#X\	ſunt
2D/	q(u)i	2d\	qui	2f#\	qui
2GG/	prop-	2d\	prop-	2g\	p(ro)p-
=38-	=38-	=38-	=38-	=38-	=38-
!	!	!	!	!LO:TX:a:t=P:problem:# above	!
1D	-ter	1d	-ter	1f#X	-ter
2AA/	nos	2cny\	nos	2e\	nos
=39-	=39-	=39-	=39-	=39-	=39-
2.GG/	ho-	(2.B\	h(o-	1g	h(o-
4AA/	.	4c\)	.	.	.
4BB/	-mi-	2d\	-mi)-	2g\	-mi)-
4C/	.	.	.	.	.
=40-	=40-	=40-	=40-	=40-	=40-
2D/	-neſ	2A/	-nes	1fny	-neſ
2D/	et	2d\	et	.	.
2AA/	prop-	2c\	prop-	2f\	et
=41-	=41-	=41-	=41-	=41-	=41-
1C	-ter	1c	-ter	1e	p(ro)p-
2FF/	noſ-	2c\	n(oſ-	2f\	-(te)r
=42-	=42-	=42-	=42-	=42-	=42-
2.C/	.	1c	-t)ra(m)	2g\	n(ost)-
.	.	.	.	4e\	-r(am)
4C/	-tra(m)	.	.	4e\	ſa-
2D/	ſa-	2B\	Sa-	2d\	-lu-
=43-	=43-	=43-	=43-	=43-	=43-
2D/	-lu-	2A/	-lu-	2d\	-te(m)
2C/	-te(m)	2c\	-te(m)	2e\	de-
2GG/	de-	2B\	de-	2d\	-ſce(n)-
!	!	!	!	!LO:LB:g=original	!
=44-	=44-	=44-	=44-	=44-	=44-
1BB	-ſcen-	1B	-ſcen-	1d	-d(it)
!LO:SIC:v:t=custos D	!	!LO:SIC:v:t=custos d	!	!	!
2C/	-dit	2G/	-dit	2e\	de
!LO:LB:g=original	!	!LO:LB:g=original	!	!	!
=45-	=45-	=45-	=45-	=45-	=45-
1D	de	2.d\	de	1f	c(oe)-
.	.	4A/	cae-	.	.
2C/	cae-	2B\	-liſ	2e\	-liſ
=46-	=46-	=46-	=46-	=46-	=46-
2FF/	-lis	1c	de-	1f	de-
2F\	de-	.	.	.	.
2D\	-ſcen-	2d\	-ſcen-	2f\	-ſcen-
=47-	=47-	=47-	=47-	=47-	=47-
1C	-dit	1e	-dit	1e	-dit
2D/	de	2A/	de	2d\	de
=48-	=48-	=48-	=48-	=48-	=48-
2GG/	.	2B-X\	.	1d	Cae-
1AA	Cae-	2A/	cae-	.	.
.	.	2A/	-lis	2c#X/	.
=49-	=49-	=49-	=49-	=49-	=49-
*M2/1	*	*M2/1	*	*M2/1	*
*met(C|)	*	*met(C|)	*	*met(C|)	*
2D/	-lis	2A/	et	2d\	-liſ
2BB-X/	et	2d\	in-	2f\	et
2B-X\	in-	2.d\	-car-	2f\	in-
2F#X\	-car-	.	.	1a\	-car-
.	.	4A/	.	.	.
=50-	=50-	=50-	=50-	=50-	=50-
1.G	-na-	4.d\	-na-	.	.
.	.	8c\	.	.	.
.	.	1B-X	.	4g\	-na-
.	.	.	.	4f\	.
.	.	.	.	2.g\	.
2G\	-t(us)	2G/	-t(us)	.	.
.	.	.	.	4g\	-t(us)
=51-	=51-	=51-	=51-	=51-	=51-
*M3/2	*	*M3/2	*	*M3/2	*
1D	eſt	1A	eſt	1f	eſt
2D/	de	2d\	de	2f\	de
=52-	=52-	=52-	=52-	=52-	=52-
2.D/	ſpi-	2.d\	ſpi-	2.f\	ſpi-
4D/	-ri-	4d\	-ri-	4f\	-ri-
2BBny/	-tu	2e\	-tu	2g\	-tu
=53-	=53-	=53-	=53-	=53-	=53-
4AA/	ſan-	1e	ſan-	1a	ſa-
4BB/	.	.	.	.	.
4C/	.	.	.	.	.
4D/	.	.	.	.	.
2E\	.	2e\	-cto	2g\	.
!LO:LB:g=original	!	!LO:LB:g=original	!	!	!
=54-	=54-	=54-	=54-	=54-	=54-
!	!	!LO:TX:t=P:problem:takty nr 54-93 na prawej stronie karty nr 0085	!	!	!
2Fny\	.	2c\	San-	1f	.
2D\	.	2d\	.	.	.
2E\	.	2Bny\	.	2e\	.
!	!	!	!	!LO:LB:g=original	!
=55-	=55-	=55-	=55-	=55-	=55-
1.AA	-cto	1.c	-cto	2e\	-cto
.	.	.	.	2e\	ex
.	.	.	.	2e\	Ma-
=56-	=56-	=56-	=56-	=56-	=56-
2A\	ex	2e\	ex	2a\	-ri-
2E\	Ma-	2e\	Ma-	2g\	.
2F\	-ri-	2c\	-ri-	2f\	.
=57-	=57-	=57-	=57-	=57-	=57-
1.C	-a	1.c	-a	2.e\	-a
.	.	.	.	4e\	ex
.	.	.	.	2e\	Ma-
=58-	=58-	=58-	=58-	=58-	=58-
*	*ij	*	*ij	*	*
2F\	ex	1c	Ma-	2f\	-ri-
2C/	Ma-	.	.	4e\	.
.	.	.	.	2.d\	.
2D/	-ri-	2A/	-ri-	.	.
=59-	=59-	=59-	=59-	=59-	=59-
1.AA	-a	1.A	-a	2.c#X/	-a
.	.	.	.	4A/	.
.	.	.	.	4B/	.
.	.	.	.	4c#/	.
*	*Xij	*	*Xij	*	*
=60-	=60-	=60-	=60-	=60-	=60-
2FF/	Vir-	2d\	Vir-	1d	Vir-
2GG/	.	2.e\	.	.	.
2AA/	-gi-	.	.	2c#X/	-gi-
.	.	4A/	-gi-	.	.
=61-	=61-	=61-	=61-	=61-	=61-
*M2/1	*	*M2/1	*	*M2/1	*
*met(C|)	*	*met(C|)	*	*met(C|)	*
2D/	-ne	2A/	-ne	2d\	-ne
2D/	et	2d\	et	2f\	e(t)
2D/	ho-	2f\	ho-	2f\	ho-
!LO:TX:a:t=P:problem:# above	!	!	!	!	!
2C#X/	-mo	2e\	-mo	1a\	-mo
=62-	=62-	=62-	=62-	=62-	=62-
2.E\	fac-	2.e\	fac-	.	.
!	!	!	!	!LO:TX:a:t=P:problem:# above	!
.	.	.	.	2g#X\	fac-
4E\	-t(us)	4e\	-t(us)	.	.
2AA/	eſt	2e\	eſt	2a\	.
*	*	*	*ij	*	*
!LO:SIC:v:t=custos GG	!	!	!	!	!
2BB-X/	et	2d\	et	2f\	-t(us)
!LO:LB:g=original	!	!	!	!	!
=63-	=63-	=63-	=63-	=63-	=63-
2GG/	ho-	2.d\	ho-	2gny\	eſt
!	!	!	!	!LO:SIC:v:t=custos e	!
2FF/	-mo	.	.	2a\	et
.	.	4d\	-mo	.	.
!	!	!LO:TX:a:t=P:problem:# above	!	!LO:LB:g=original	!
1.AA	fac-	2c#X\	fac-	2e\	[ho-
.	.	1d\	.	2f\	-mo
=64-	=64-	=64-	=64-	=64-	=64-
.	.	.	.	2.e\	fac]-
!	!	!LO:TX:a:t=P:problem:# above	!	!	!
2AA/	-t(us)	2c#X\	-t(us)	.	.
.	.	.	.	4e\	-t(us)
!	!	!LO:LB:g=original	!	!	!
1D;;	e(ſt)	1d;;	eſt	1f#X	e(ſt)
*	*	*	*Xij	*	*
=65||	=65||	=65||	=65||	=65||	=65||
*M2/1	*	*M2/1	*	*M2/1	*
*met(C|)	*	*met(C|)	*	*met(C|)	*
2r	.	4.d\	Cru-	0r	.
.	.	8d\	-ci-	.	.
4.A\	Cru-	4c\	-fi-	.	.
.	.	4c\	-x(us)	.	.
8A\	-ci-	.	.	.	.
4G\	-fi-	8B\	e-	.	.
.	.	8A\	-ti-	.	.
4G\	-x(us)	8B\	-a(m)	.	.
.	.	8G/	pro	.	.
8F\	e-	8A/	.	.	.
8E\	-ti-	16A\LL	no-	.	.
.	.	16B\JJ	.	.	.
8F\	-a(m)	2d\	.	.	.
8D/	pro	.	.	.	.
=66-	=66-	=66-	=66-	=66-	=66-
2E\	no-	.	.	1r	.
.	.	4c\	.	.	.
8D/L	.	4d\	.	.	.
16E/L	.	.	.	.	.
16F/JJ	.	.	.	.	.
2G\	.	4B\	.	.	.
.	.	2A/	-biſ	4.a\	Cru-
4F\	.	.	.	.	.
.	.	.	.	8a\	-ci-
2G\	.	2r	.	4g\	-fi-
.	.	.	.	4g\	-x(us)
=67-	=67-	=67-	=67-	=67-	=67-
2D/	-bis	2r	.	8fny\	e-
.	.	.	.	8e\	-ti-
.	.	.	.	8f\	-a(m)
.	.	.	.	8d\	pro
!LO:SIC:v:t=custos D	!	!	!	!	!
2r	.	4r	.	2e\	no-
.	.	4A/	ſub	.	.
!LO:PB:g=original	!	!	!	!	!
4r	.	4.F/	Pon-	2d\	-bis
4D/	ſub	.	.	.	.
.	.	8F/	-ti-	.	.
4.BB/	Pon-	2.G/	-o	2r	.
8BB/	-ti-	.	.	.	.
=68-	=68-	=68-	=68-	=68-	=68-
*	*	*	*	*	*ij
2.C/	-o	.	.	1r	.
.	.	4E/	Pi-	.	.
.	.	4.A/	-la-	.	.
4AA/	Pi-	.	.	.	.
.	.	8G/	.	.	.
2D/	-la-	2F/	.	4.d\	Cru-
.	.	.	.	8d\	-ci-
2AA/	-to	2E/	-to	4.cny/	-fi-
.	.	.	.	8c/	-x(us)
=69-	=69-	=69-	=69-	=69-	=69-
1r	.	1r	.	8B/	e-
.	.	.	.	8A/	-ti-
.	.	.	.	8B/	-a(m)
.	.	.	.	8G/	pro
.	.	.	.	8A/L	no-
.	.	.	.	16B/L	.
.	.	.	.	16c/JJ	.
.	.	.	.	2d\	.
*	*	*	*ij	*	*
2r	.	2A/	ſub	.	.
!	!	!	!	!LO:SIC:v:t=custos d	!
.	.	.	.	4c\	.
!	!	!LO:TX:b:t=P:problem:# below	!	!LO:PB:g=original	!
4.D/	Cru-	4.F#X/	Pon-	2d\	.
8D/	-ci-	8F#/	-ti-	.	.
!	!	!	!LO:LB:g=original	!	!
=70-	=70-	=70-	=70-	=70-	=70-
4C/	-fi-	8G/	-o	2e\	.
.	.	8E/	.	.	.
4C/	-x(us)	2A/	Pi-	.	.
8BB/	E-	.	.	2d\	-bis
8AA/	-ti-	.	.	.	.
8BB/	-am	2G/	.	.	.
8GG/	pro	.	.	.	.
2AA/	no-	.	.	1r	.
!	!	!LO:TX:b:t=P:problem:# below	!	!	!
!	!	!LO:TX:b:t=P:problem:# below	!	!	!
.	.	4F#X/	.	.	.
4GG/	-biſ	2G/	-la-	.	.
2G\	pro	.	.	.	.
*	*	*	*	*	*Xij
=71-	=71-	=71-	=71-	=71-	=71-
.	.	2D/	-to	4r	.
!LO:TX:a:t=P:problem:# above	!	!	!	!	!
4F#X\	no-	.	.	4d\	ſub
4G\	-biſ	2r	.	4.B/	Pon-
4G\	ſub	.	.	.	.
.	.	.	.	8B/	-ti-
4.E\	Pon-	1r	.	2.c/	-o
8E\	-ti-	.	.	.	.
2.Fny\	-o	.	.	.	.
.	.	.	.	4A/	Pi-
*	*	*	*Xij	*	*
=72-	=72-	=72-	=72-	=72-	=72-
.	.	2r	.	4.d\	-la-
4D\	Pi-	.	.	.	.
.	.	.	.	8c/	.
2G\	-la-	4.d\	Cru-	2B/	.
.	.	8d\	-ci-	.	.
2C/	-to	4c\	-fi-	4c/	.
.	.	4c\	-x(us)	4G/	.
2r	.	8B\	e-	2G/	-to
.	.	8A/	-ti-	.	.
.	.	8B\	-a(m)	.	.
.	.	8G/	pro	.	.
=73-	=73-	=73-	=73-	=73-	=73-
4r	.	2A/	no-	2r	.
4D/	ſub	.	.	.	.
!LO:LB:g=original	!	!	!	!	!
4.BB/	Pon-	2G/	.	4r	.
*	*	*	*	*	*ij
.	.	.	.	4g\	pro
8BB/	-ti-	.	.	.	.
!LO:N:vis=2	!	!	!	!	!
2.C/	-o	2G/	-bis	4.e\	no-
.	.	.	.	8e\	-bis
.	.	4r	.	4e\	ſub
4AA/	Pi-	4A/	ſub	4e\	Pon-
=74-	=74-	=74-	=74-	=74-	=74-
2D/	-la-	4.F#X/	Pon-	1d	-ti-
.	.	8F#/	-ti-	.	.
2GG/	-to	4G/	-o	.	.
.	.	4D/	Pi-	.	.
2r	.	8C/L	-la-	2e\	-o
.	.	8D/J	.	.	.
.	.	8E/L	.	.	.
.	.	8C/J	.	.	.
*	*ij	*	*	*	*Xij
4r	.	2Fny/	.	2c/	Pi-
4A\	ſub	.	.	.	.
=75-	=75-	=75-	=75-	=75-	=75-
4.F#X\	Pon-	2D/	-to	2.d\	-la-
8F#\	-ti-	.	.	.	.
2.G\	-o	4r	.	.	.
!	!	!LO:SIC:v:t=custos B	!	!	!
.	.	4d\	ſub	4B/	.
!	!	!LO:LB:g=original	!	!LO:SIC:v:t=custos e	!
.	.	4.B\	Pon-	2e\	.
4E\	Pi-	.	.	.	.
.	.	8B\	-ti-	.	.
!	!	!	!	!LO:LB:g=original	!
4.A\	-la-	2.c\	-o	2.e\	.
8G\	.	.	.	.	.
=76-	=76-	=76-	=76-	=76-	=76-
4.F\	.	.	.	.	.
.	.	4A/	Pi-	8d\L	.
8E\	.	.	.	8c\J	.
2D/	.	1d	-la-	2f\	.
1AA	.	.	.	1e	.
!	!	!LO:TX:a:t=P:problem:# above	!	!	!
.	.	2c#X\	.	.	.
=77-	=77-	=77-	=77-	=77-	=77-
1D	-to	1d	.	1d	-to
*	*Xij	*	*	*	*
1F#X	paſ-	1A	-to	2r	.
.	.	.	.	1a\	Paſ-
=78-	=78-	=78-	=78-	=78-	=78-
2G\	-s(us)	2r	.	.	.
2BB-X/	et	1d	Paſ-	2g\	-s(us)
1C	se-	.	.	2.e\	et
.	.	2cny\	.	.	.
.	.	.	.	4e\	ſe-
=79-	=79-	=79-	=79-	=79-	=79-
1.D	-pul-	1B	-ſ(us)	1.d	-pul-
.	.	2.A/	et	.	.
2D/	-t(us)	.	.	2d\	-t(us)
.	.	8G/L	.	.	.
.	.	8F/J	.	.	.
=80-	=80-	=80-	=80-	=80-	=80-
1GG	eſt	1G	.	2d\	eſt
.	.	.	.	2.e\	et
1BB-X	ſe-	2F/	ſe-	.	.
.	.	.	.	4e\	ſe-
.	.	2G/	.	2d\	-pul-
=81-	=81-	=81-	=81-	=81-	=81-
!	!	!	!	!LO:TX:b:t=P:problem:# below	!
1.AA	-pul-	1.A	-pul-	2c#X/	.
.	.	.	.	1d	.
!	!	!	!	!LO:TX:b:t=P:problem:# below	!
2AA/	-t(us)	2A/	-t(us)	2c#X/	-t(us)
=82-	=82-	=82-	=82-	=82-	=82-
0Dl;;	e(st)	0Al;;	eſt	0dl;;	eſt
!LO:LB:g=original	!	!	!	!	!
=83||	=83||	=83||	=83||	=83||	=83||
*M3/2	*	*M3/2	*	*M3/2	*
2D/	Et	2d\	Et	2f\	Et
2D/	re-	2d\	re-	2f\	re-
!	!	!	!	!LO:SIC:v:t=custos e	!
2D/	-ſur-	2d\	-ſur-	2f\	-ſur-
!	!	!	!	!LO:LB:g=original	!
=84-	=84-	=84-	=84-	=84-	=84-
!	!	!LO:TX:a:t=P:problem:# above	!	!	!
1AA	-re-	1c#X	-re-	1e	-re-
2D/	-xit	2d\	-xit	2f\	-xit
!	!	!LO:LB:g=original	!	!	!
=85-	=85-	=85-	=85-	=85-	=85-
*	*ij	*	*ij	*	*ij
2F\	et	2A/	et	2f\	et
2F\	re-	2cny\	re-	2f\	re-
2F\	-ſur-	2c\	-ſur-	2a\	-ſur-
=86-	=86-	=86-	=86-	=86-	=86-
1C	-re-	1c	-re-	1g	-re-
2F\	-xit	2c\	-xit	2f\	-xit
*	*Xij	*	*Xij	*	*Xij
=87-	=87-	=87-	=87-	=87-	=87-
2.F\	ter-	2.c\	ter-	2.f\	ter-
4F\	-ti-	4c\	-ti-	4f\	-ti-
2D/	-a	2B\	-a	2f\	-a
=88-	=88-	=88-	=88-	=88-	=88-
2E\	di-	2B\	di-	2e\	di-
2E\	-e	2B\	-e	2e\	-e
2C/	ſe-	2A/	ſe-	2e\	ſe-
=89-	=89-	=89-	=89-	=89-	=89-
2D/	-cun-	2A/	-cun-	2f\	-cun-
4AA/	-du(m)	4A/	-du(m)	4e\	-d(um)
4AA/	ſcrip-	4A/	ſcri-	4e\	ſcri-
2E\	-tu-	2B\	-ptu-	2e\	-ptu-
=90-	=90-	=90-	=90-	=90-	=90-
1.AA	-raſ	1c	.	1.e	-raſ
.	.	2A/	-raſ	.	.
=91-	=91-	=91-	=91-	=91-	=91-
00.r	.	2F/	et	2r	.
.	.	4F/	a-	2r	.
.	.	4G/	.	.	.
.	.	4A/	.	2f\	et
.	.	4B/	.	.	.
=92-	=92-	=92-	=92-	=92-	=92-
.	.	2c\	-ſcen-	2c/	a-
.	.	2c\	-dit	4c\	-ſcen-
.	.	.	.	4d\	.
.	.	2c\	a-	4e\	.
.	.	.	.	4f\	.
=93-	=93-	=93-	=93-	=93-	=93-
.	.	4B\	-ſcen-	2.g\	.
.	.	4A\	.	.	.
.	.	4B\	.	.	.
.	.	4c\	.	8f\L	.
.	.	.	.	8e\J	.
.	.	4d\	.	4d\	.
.	.	8c\L	.	4e\	.
!	!	!LO:SIC:v:t=custos A	!	!	!
.	.	8B\J	.	.	.
!	!	!LO:PB:g=original	!	!LO:LB:g=original	!
=94-	=94-	=94-	=94-	=94-	=94-
!	!	!LO:TX:t=P:problem:takty nr 94-123 na lewej stronie karty nr 0085	!	!	!
.	.	4A/	.	2.f\	.
.	.	4G/	.	.	.
.	.	4A/	.	.	.
.	.	4B\	.	8e\L	.
.	.	.	.	8d\J	.
.	.	4c\	.	2.c/	.
.	.	4d\	.	.	.
=95-	=95-	=95-	=95-	=95-	=95-
00.r	.	1e	.	.	.
.	.	.	.	4d\	.
.	.	.	.	4e\	.
.	.	.	.	4f\	.
.	.	2d\	.	2g\	.
=96-	=96-	=96-	=96-	=96-	=96-
.	.	1e	-dit	1c	-de
.	.	2e\	a-	2c/	a-
=97-	=97-	=97-	=97-	=97-	=97-
.	.	2.d\	-ſcen-	2.g\	-ſcen-
.	.	4d\	-dit	4g\	-dit
.	.	2c\	in	2a\	in
=98-	=98-	=98-	=98-	=98-	=98-
.	.	(<1B	Cae-	1e	Cae-
.	.	2A/)	.	2f\	-lu(m)
=99-	=99-	=99-	=99-	=99-	=99-
00.r	.	1G#X	-lu(m)	2e\	ſe-
.	.	.	.	2e\	-det
!	!	!LO:TX:a:t=P:problem:# above	!	!	!
.	.	2c#X\	ſe-	2a\	ad
=100-	=100-	=100-	=100-	=100-	=100-
.	.	1d	-det	2.d\	dex-
.	.	.	.	4d\	-te-
.	.	2cny\	ad	4e\	.
.	.	.	.	4e\	-ra(m)
=101-	=101-	=101-	=101-	=101-	=101-
*	*	*	*	*	*ij
.	.	2.B\	dex-	2.g\	dex-
.	.	4A/	-te-	4f\	-te-
.	.	4B\	-ra(m)	2g\	-ra(m)
.	.	4B\	ad	.	.
*	*	*	*	*	*Xij
=102-	=102-	=102-	=102-	=102-	=102-
.	.	2A/	dex-	2a\	Pa-
.	.	4A/	-te-	1e	.
.	.	4A/	-ra(m)	.	.
!	!	!LO:TX:b:t=P:problem:# below	!	!	!
.	.	2G#X/	Pa-	.	.
=103-	=103-	=103-	=103-	=103-	=103-
2r	.	2A/	-t(ris)	2f#X\	-triſ
!	!	!	!	!LO:TX:a:t=P:problem:# above	!
2D/	Et	2d\	e(t)	2f#X\	et
!	!	!	!	!LO:LB:g=original	!
!	!	!LO:LB:g=original	!	!LO:TX:a:t=P:problem:# above	!
4D/	i-	4d\	i-	4f#X\	i-
!	!	!LO:TX:t=P:problem:kreska pseudotaktowa	!	!LO:TX:t=P:problem:kreska pseudotaktowa	!
4D/	-te-	4d\	-te-	4f#\	-te-
!LO:LB:g=original	!	!	!	!	!
=104-	=104-	=104-	=104-	=104-	=104-
1AA	-ru(m)	1e	-rum	1e	-rum
2AA/	ven-	2e\	ven-	2a\	ven-
=105-	=105-	=105-	=105-	=105-	=105-
1D	-tu-	1f#X	-tu-	1a	-tu-
2E\	-r(us)	2e\	-r(us)	2g#X\	-r(us)
=106-	=106-	=106-	=106-	=106-	=106-
1AA	eſt	1c#X	eſt	1a	est
!LO:TX:a:t=P:problem:# above	!	!	!	!	!
2F#X\	Cu(m)	2d\	cu(m)	2a\	cu(m)
=107-	=107-	=107-	=107-	=107-	=107-
!	!	!	!	!LO:TX:a:t=P:problem:# above	!
1E	glo-	(2B\	glo-	1g#X	glo-
.	.	2e\)	.	.	.
!	!	!	!	!LO:TX:a:t=P:problem:# above	!
2D/	-ri-	2A/	-ri-	2f#X\	-ri-
=108-	=108-	=108-	=108-	=108-	=108-
!	!	!LO:TX:a:t=P:problem:# above	!	!	!
1AA	-a	1c#X	-a	1a	-a
2BB/	Ju-	2d\	ju-	2f#X\	ju-
=109-	=109-	=109-	=109-	=109-	=109-
1F#X	-di-	1c#X	-di-	1f#y	-di-
2G\	-ca-	2B\	-ca-	2d\	-ca-
=110-	=110-	=110-	=110-	=110-	=110-
1D	-re	2A/	-re	1d	-re
.	.	2A/	ju-	.	.
2D/	ju-	2A/	-di-	2d\	Vi-
=111-	=111-	=111-	=111-	=111-	=111-
1D	-di-	1d	-ca-	1d	-voſ
2D/	-ca-	2B\	-re	2d\	Vi-
=112-	=112-	=112-	=112-	=112-	=112-
2D/	-re	1d	Vi-	2f#X\	-voſ
2D/	Vi-	.	.	(2f#\	et
2E/	-vos	2B\	-vos	2e\)	.
=113-	=113-	=113-	=113-	=113-	=113-
2Fny\	et	2d\	et	2d\	mor-
2G\	Mor-	2.e\	mor-	2d\	-tu-
!	!	!	!	!LO:TX:b:t=P:problem:# below	!
2A\	-tu-	.	.	2c#X/	-oſ
.	.	4A,</	-tu-	.	.
=114-	=114-	=114-	=114-	=114-	=114-
2D/	-oſ	2A/	-oſ	2d\	.
2D/	cu-	2A/	Cu-	2d\	Cu-
!	!	!LO:TX:t=P:problem:kreska pseudotaktowa	!	!	!
!	!	!LO:LB:g=original	!	!	!
2D/	-i(us)	2A/	-i(us)	2d\	-i[us]
!	!	!	!	!LO:LB:g=original	!
=115-	=115-	=115-	=115-	=115-	=115-
1D	Re-	2.d\	Re-	2f#X\	Re-
.	.	.	.	2f#\	-gni
.	.	4d\	-gni	.	.
4E\	-gni	2B\	non	2e\	n(on)
4E\	non	.	.	.	.
!LO:LB:g=original	!	!	!	!	!
=116-	=116-	=116-	=116-	=116-	=116-
2F\	e-	2d\	e-	2d\	e-
2G\	-rit	2.e\	-rit	2d\	-rit
2A\	fi-	.	.	2cny/	fi-
.	.	4A/	fi-	.	.
=117-	=117-	=117-	=117-	=117-	=117-
2D,</	-niſ	2A/	-niſ	2d\	-niſ
2D/	Et	2A/	et	2d\	Et
2D/	in	2A/	in	2d\	in
=118-	=118-	=118-	=118-	=118-	=118-
2.F\	ſpi-	2.cny\	ſpi-	2.fny\	ſpi-
4F\	-ri-	4c\	-ri-	4f\	-ri-
4F\	-tu(m)	4c\	-tu(m)	2f\	-t(um)
4F\	in	4c\	in	.	.
=119-	=119-	=119-	=119-	=119-	=119-
2.C/	ſp(i-	2.c\	ſpi-	2.e\	ſpi-
4C/	-ri-	4c\	-ri-	4e\	-ri-
2C/	-t)u(m)	2c\	-tu(m)	2e\	-tu(m)
=120-	=120-	=120-	=120-	=120-	=120-
1G	S(an)c-	2d\	ſ(an)-	1gny	ſ(an)-
.	.	1d	-ctu(m)	.	.
2G\	-tu(m)	.	.	2g\	-ctu(m)
=121-	=121-	=121-	=121-	=121-	=121-
2.D/	D(o-	2.d\	Do-	2.f#X\	Do-
4D/	-mi)-	4d\	-(mi)-	4f#\	-(mi)-
2D/	-nu(m)	2d\	-n(um)	2f#\	-n(um)
=122-	=122-	=122-	=122-	=122-	=122-
2.D/	et	2.d\	Et	2.f#X\	Et
!	!	!	!	!LO:TX:a:t=P:problem:# above	!
4D/	Vi-	4d\	Vi-	4f#X\	vi-
4D/	-vi-	4d\	-vi-	4f#\	-vi-
!	!	!	!	!LO:TX:a:t=P:problem:# above	!
4D/	-fi-	4d\	-fi-	4f#X\	-fi-
=123-	=123-	=123-	=123-	=123-	=123-
2G\	-can-	1d	-can-	1g	-can-
1G	-te(m)	.	.	.	.
.	.	2d\	-te(m)	2g\	-[tem]
!	!	!LO:PB:g=original	!	!LO:LB:g=original	!
=124-	=124-	=124-	=124-	=124-	=124-
*	*ij	*	*ij	*	*ij
!	!	!LO:N:xstem	!	!	!
2.C/	et	2.Gny/	et	2.g\	et
!	!	!LO:N:xstem	!	!	!
4C/	Vi-	4G/	Vi-	4g\	vi-
!	!	!LO:N:xstem	!	!	!
4C/	-vi-	4G/	-vi-	4g\	-vi-
!	!	!LO:N:xstem	!	!	!
4C/	-fi-	4c\	-fi-	4g\	-fi-
=125-	=125-	=125-	=125-	=125-	=125-
!	!	!LO:N:xstem	!	!	!
2F\	-can-	2A/	.	2a\	-can-
2G\	.	2B\	.	(2g\	.
!LO:SIC:v:t=custos D	!	!LO:N:xstem	!	!	!
2A\	.	2A/	.	2e\)	.
!LO:LB:g=original	!	!	!	!	!
=126-	=126-	=126-	=126-	=126-	=126-
!	!	!LO:N:xstem	!	!	!
2D/	-te(m)	2A/	-te(m)	2fny\	-tem
*	*Xij	*	*Xij	*	*Xij
2D/	qui	2d\	q(ui)	2f\	qui
2D/	ex	2d\	ex	2f\	ex
=127-	=127-	=127-	=127-	=127-	=127-
1D	Pa-	1d	Pa-	1f	Pa-
2BB/	-tre	2d\	-tre	2g\	-tre
=128-	=128-	=128-	=128-	=128-	=128-
(4AA/	Fi-	4e\	Fi-	2.a\	Fi-
4BB/)	.	4fny\	-li-	.	.
(4C/	-li-	2e\	-o-	.	.
4D/)	.	.	.	4a\	-li-
4E\	-o-	2d\	-que	4g\	-o-
4F\	-q(ue)	.	.	4g\	-q(ue)
=129-	=129-	=129-	=129-	=129-	=129-
2F\	p(ro)-	2c\	pro-	2f\	p(ro)-
2D/	-ce-	2d\	-ce-	2.f\	-ce-
2E\	.	2B\	.	.	.
.	.	.	.	4e\	.
=130-	=130-	=130-	=130-	=130-	=130-
2AA/	-dit	2c\	-dit	1.e	-dit
2D\	q(ui)	2r	.	.	.
2F\	cu(m)	2r	.	.	.
=131-	=131-	=131-	=131-	=131-	=131-
!	!	!LO:N:xstem	!	!	!
2D/	Pa-	2A/	qui	00.r	.
2D/	-tre	1A	cu(m)	.	.
2F\	Cu(m)	.	.	.	.
=132-	=132-	=132-	=132-	=132-	=132-
1F	P(a-	4B\	Pa-	.	.
.	.	4A\	.	.	.
.	.	4G\	.	.	.
.	.	4A\	.	.	.
2F\	-t)re	4B\	.	.	.
.	.	4c\	.	.	.
!	!	!LO:LB:g=original	!	!	!
=133-	=133-	=133-	=133-	=133-	=133-
(1C	et	2e\	.	.	.
.	.	2e\	-tre	.	.
2GG/)	.	2d\	et	.	.
=134-	=134-	=134-	=134-	=134-	=134-
2.AA/	Fi-	2.c\	Fi-	.	.
4AA/	-li-	4c\	-li-	.	.
2AA/	-o	2c\	-o	.	.
=135-	=135-	=135-	=135-	=135-	=135-
2.E\	ſi-	2.e\	ſi-	1g	ſi-
4E\	-mul	4e\	-mul	.	.
4E\	a-	4e\	a-	2g\	-mul
4E\	-do-	4e\	-do-	.	.
!LO:LB:g=original	!	!	!	!	!
=136-	=136-	=136-	=136-	=136-	=136-
1A	-ra-	1e	-ra-	2.a\	a-
.	.	.	.	4a\	-do-
2A\	-t(ur)	2c#X\	-t(ur)	4a\	-ra-
.	.	.	.	4a\	-t(ur)
=137-	=137-	=137-	=137-	=137-	=137-
*	*ij	*	*ij	*	*
2.D/	ſi-	2.d\	ſi-	2.f\	[a-
4D/	-mul	4d\	-mul	4f\	-do]
!	!	!	!	!LO:TX:t=P:problem:fragment nieczytelny	!
4D/	a-	4d\	a-	2ryy	.
4D/	-do-	4d\	-do-	.	.
!	!	!	!	!LO:PB:g=original	!
=138-	=138-	=138-	=138-	=138-	=138-
2G\	-ra-	2d\	-ra-	2.g\	a-
2G\	-t(ur)	2d\	-tur	.	.
*	*Xij	*	*Xij	*	*
.	.	.	.	4g\	-do-
2G\	et	2d\	et	4g\	-ra-
.	.	.	.	8g\	-t(ur)
.	.	.	.	8g\	et
=139-	=139-	=139-	=139-	=139-	=139-
4C/	Con-	4cny\	Con-	4g\	Con-
4C/	-glo-	4c\	-glo-	4g\	-glo-
4C/	-ri-	4c\	-ri-	4g\	-ri-
4C/	-fi-	4c\	-fi-	4g\	-fi-
2G\	-ca-	2d\	-ca-	2g\	-ca-
=140-	=140-	=140-	=140-	=140-	=140-
1.C	-t(ur)	2c\	-t(ur)	2g\	-tur
.	.	2c\	q(ui)	2c/	qui
.	.	2c\	lo-	2c/	lo-
=141-	=141-	=141-	=141-	=141-	=141-
00.r	.	2.B\	-cu-	2.g\	-cu-
.	.	4B\	-t(us)	4g\	-t(us)
.	.	2c\	eſt	2e\	eſt
!	!	!LO:LB:g=original	!	!	!
=142-	=142-	=142-	=142-	=142-	=142-
.	.	4A/	per	2.f\	per
.	.	4G/	.	.	.
.	.	4A/	.	.	.
.	.	4B\	.	8e\L	.
.	.	.	.	8d\J	.
.	.	4c\	.	4c\	.
.	.	8B\L	.	4d\	.
.	.	8A\J	.	.	.
=143-	=143-	=143-	=143-	=143-	=143-
.	.	4G/	.	1e	Pro-
.	.	4F/	.	.	.
.	.	4G/	.	.	.
.	.	4A/	.	.	.
.	.	2B\	.	1d\	-phe-
=144-	=144-	=144-	=144-	=144-	=144-
.	.	1A	Pro-	.	.
.	.	.	.	1e	.
.	.	2G/	-phe-	.	.
=145-	=145-	=145-	=145-	=145-	=145-
1.r	.	1.A	-taſ	1.A	-taſ
=146-	=146-	=146-	=146-	=146-	=146-
2A\	Et	2c#X\	et	00.r	.
2A\	U-	2c#\	U-	.	.
!	!	!LO:TX:a:t=P:problem:# above	!	!	!
2D/	-na(m)	2c#X\	-na(m)	.	.
=147-	=147-	=147-	=147-	=147-	=147-
2.G\	San-	2B\	ſ(an)-	.	.
.	.	2B\	-cta(m)	.	.
4G\	-cta(m)	.	.	.	.
2A\	Ca-	2cny\	Ca-	.	.
=148-	=148-	=148-	=148-	=148-	=148-
2.G\	-tho-	2.B\	-tho-	.	.
4G\	-li-	4B\	-li-	.	.
2C/	-ca(m)	2c\	-ca(m)	.	.
=149-	=149-	=149-	=149-	=149-	=149-
1.r	.	2G/	et	.	.
.	.	2A/	a-	.	.
.	.	2B/	-po-	.	.
=150-	=150-	=150-	=150-	=150-	=150-
2C/	Et	2.c\	-ſto-	00.r	.
2D/	A-	.	.	.	.
.	.	4B\	-li-	.	.
2E/	-po-	2B\	-ca(m)	.	.
=151-	=151-	=151-	=151-	=151-	=151-
*	*	*	*ij	*	*
2.F\	-ſto-	2A/	et	.	.
.	.	2B/	a-	.	.
4F\	-li-	.	.	.	.
!LO:TX:a:t=Vi	!	!	!	!	!
!LO:SIC:v:t=custos D	!	!LO:TX:a:t=P:problem:# above	!	!	!
2E\	-ca(m)	2c#X\	-po-	.	.
!LO:PB:g=original	!	!LO:LB:g=original	!	!	!
=152-	=152-	=152-	=152-	=152-	=152-
!LO:TX:a:t=de.	!	!	!	!	!
1D	Ec-	2.d\	-ſto-	.	.
.	.	4A/	-li-	.	.
2C/	.	4A/	-ca(m)	.	.
*	*	*	*Xij	*	*
.	.	4A/	Ec-	.	.
=153-	=153-	=153-	=153-	=153-	=153-
1BB	-cle-	1A	-cle-	.	.
2BB/	-ſi-	2G/	-ſi-	.	.
=154-	=154-	=154-	=154-	=154-	=154-
1AA	-am	1A	-a(m)	2r	.
.	.	.	.	2r	.
2A\	Con-	2c#X\	Con-	2e\	Con-
=155-	=155-	=155-	=155-	=155-	=155-
!	!	!	!	!LO:TX:a:t=P:problem:# above	!
2.D/	-fi-	2.d\	-fi-	2.f#X\	-fi-
4D/	-te-	4d\	-te-	4f#\	-te-
!	!	!	!	!LO:TX:a:t=P:problem:# above	!
2D/	-or	2d\	-or	2f#X\	-or
!	!	!	!	!LO:LB:g=original	!
=156-	=156-	=156-	=156-	=156-	=156-
2D/	V-	2d\	U-	2f#y\	U-
2D/	-nu(m)	2.d\	-nu(m)	2f#y\	-nu(m)
2BB/	bap-	.	.	2g\	bap-
.	.	4A/	bap-	.	.
=157-	=157-	=157-	=157-	=157-	=157-
1D	-tiſ-	1A	-tiſ-	1f#X	-tiſ-
2GG/	-ma	2G/	-ma	2g\	-ma
=158-	=158-	=158-	=158-	=158-	=158-
2.GG/	in	2.d\	in	2.g\	In
4GG/	re-	4d\	re-	4g\	re-
4GG/	-miſ-	4d\	-miſ-	4g\	-miſ-
4GG/	-Si-	4d\	-si-	4g\	-si-
=159-	=159-	=159-	=159-	=159-	=159-
!	!	!LO:N:acc=-	!	!	!
1C	-o-	1cn	-o-	1g	-o-
2C/	-ne(m)	2c\	-ne(m)	2e\	-ne(m)
=160-	=160-	=160-	=160-	=160-	=160-
*	*ij	*	*ij	*	*ij
2.AA/	in	2.c#X\	in	2.e\	in
4AA/	re-	4c#\	re-	4e\	re-
4AA/	-miſ-	4c#\	-miſ-	4e\	-miſ-
4AA/	-Si-	4c#\	-si-	4e\	-si-
=161-	=161-	=161-	=161-	=161-	=161-
1D	-o-	2d\	-o-	1f	-o-
.	.	1A	-ne(m)	.	.
2AA/	-ne(m)	.	.	2f\	-ne(m)
*	*Xij	*	*Xij	*	*Xij
!	!	!	!LO:LB:g=original	!	!
=162-	=162-	=162-	=162-	=162-	=162-
2BB-X/	pec-	2B-X\	pec-	2f\	pec-
(4BB-/	-ca-	(4B-\	-ca-	(2f\	-ca-
4FF/)	.	4cny\)	.	.	.
2C/	-to-	2c\	-to-	2e\)	-to-
=163-	=163-	=163-	=163-	=163-	=163-
*M2/1	*	*M2/1	*	*M2/1	*
*met(C|)	*	*met(C|)	*	*met(C|)	*
2FF/	-ru(m)	2c\	-ru(m)	2f\	-ru(m)
!LO:LB:g=original	!	!	!	!	!
1D	Et	2F/	et	1f	et
.	.	2f\	ex-	.	.
!LO:TX:a:t=P:problem:# above	!	!	!	!	!
2C#X/	ex-	2.e\	-pe-	2a\	ex-
=164-	=164-	=164-	=164-	=164-	=164-
1D	-pec-	.	.	1f	-pec-
.	.	8d\L	.	.	.
.	.	8c\J	.	.	.
!	!	!LO:N:acc=#	!	!	!
.	.	1dn	.	.	.
1AA	-to	.	.	1e	-to
.	.	2c\	-cto	.	.
=165-	=165-	=165-	=165-	=165-	=165-
4r	.	4.A/	re-	1r	.
4.D\	re-	.	.	.	.
.	.	8A/	-ſur-	.	.
.	.	4.Bny\	-rec-	.	.
8D\	-ſur-	.	.	.	.
4.E\	-rec-	.	.	.	.
.	.	8B\	-ti-	.	.
!	!	!	!	!LO:LB:g=original	!
.	.	4.c\	-o-	2r	.
8E\	-ti-	.	.	.	.
4.F\	-o-	.	.	.	.
.	.	8c\	-ne(m)	.	.
.	.	4.d\	Mor-	4.d\	re-
8F\	-ne(m)	.	.	.	.
*	*ij	*	*	*	*
4.G\	re-	.	.	.	.
.	.	8B\	-tu-	8d\	-ſur-
=166-	=166-	=166-	=166-	=166-	=166-
.	.	4B\	-o-	4.e\	-rec-
8G\	-ſur-	.	.	.	.
4.A\	-rec-	4A/	-ru(m)	.	.
.	.	.	.	8e\	-ti-
.	.	2r	.	8.f\	-o-
8A\	-ti-	.	.	.	.
.	.	.	.	16f\	-ne(m)
4.B\	-o-	.	.	8g\	mor-
.	.	.	.	8g\	-tu-
.	.	4r	.	4g\	-o-
8B\	-nem	.	.	.	.
*	*Xij	*	*	*	*
4.c\	mor-	4.A/	Re-	4e\	-ru(m)
.	.	.	.	4r	.
8Cny/	-tu-	8A/	-ſur-	.	.
*	*	*	*	*	*ij
2D/	-o-	4.B\	-rec-	8d\	re-
.	.	.	.	8d\	-ſur-
=167-	=167-	=167-	=167-	=167-	=167-
.	.	.	.	4.e\	-rec-
.	.	8B\	-ti-	.	.
!	!	!LO:PB:g=original	!	!	!
4GG/	.	4.c\	-o-	.	.
.	.	.	.	8e\	-ti-
2r	.	.	.	4.f\	-o-
.	.	8c\	-ne(m)	.	.
.	.	4.d\	mor-	.	.
.	.	.	.	8f\	-ne(m)
!LO:TX:t=P:problem:prawdopodobnie brak fragmentu [niezgodność pionów]	!	!	!	!	!
2ryy	.	.	.	4.g\	mor-
.	.	8c\	-tu-	.	.
.	.	4B-X\	-o-	.	.
.	.	.	.	8g\	-tu-
4C/	Mor-	4A/	.	4a\	-o-
2D/	.	4B-X\	.	4f\	.
=168-	=168-	=168-	=168-	=168-	=168-
.	.	4.G/	.	1e	.
8C/L	-tu-	.	.	.	.
!	!	!LO:N:vis=8	!	!	!
8BBny/J	.	16F/LL	.	.	.
!	!	!LO:N:vis=8	!	!	!
.	.	16G/JJ	.	.	.
4AA/	-o-	2A/	.	.	.
4GG/	.	.	.	.	.
!LO:LB:g=original	!	!	!	!	!
=169-	=169-	=169-	=169-	=169-	=169-
*M3/2	*	*M3/2	*	*M3/2	*
1D	-ru(m)	1D	-rum	1d	-ru(m)
*	*	*	*	*	*Xij
2D/	et	2d\	et	2f#X\	et
=170-	=170-	=170-	=170-	=170-	=170-
2.D/	Vi-	2d\	Vi-	2f#y\	Vi-
.	.	2d\	-ta(m)	2f#\	-ta(m)
4D/	-ta(m)	.	.	.	.
2BB/	ven-	2d\	Ven-	2g\	Ven-
!	!	!	!	!LO:LB:g=original	!
=171-	=171-	=171-	=171-	=171-	=171-
4AA/	-tu-	1e	-tu-	1a	-tu-
4BB/	.	.	.	.	.
4C/	.	.	.	.	.
4D/	.	.	.	.	.
2E\	.	2d\	-ri	2g\	-ri
=172-	=172-	=172-	=172-	=172-	=172-
2F\	-ri	2c\	ſae-	1fny	ſe-
2D\	ſe-	2d\	-cu-	.	.
2E\	-cu-	2Bny\	-li	2e\	-cu-
=173-	=173-	=173-	=173-	=173-	=173-
1.AA	-li	1.c	a-	2e\	-li
.	.	.	.	2a\	A-
.	.	.	.	2a\	-men
=174-	=174-	=174-	=174-	=174-	=174-
2A\	A-	1e	.	(2a\	A-
2E\	.	.	.	2g\)	.
2F\	.	2c\	.	2f\	.
=175-	=175-	=175-	=175-	=175-	=175-
1.C	-men	1.c	-men	2e\	-men
*	*	*	*	*	*ij
.	.	.	.	2g\	A-
.	.	.	.	2g\	-men
!	!	!LO:LB:g=original	!	!	!
=176-	=176-	=176-	=176-	=176-	=176-
*	*ij	*	*	*	*
2F\	A-	1c	a-	2f\	A-
2C/	.	.	.	2e\	.
2D/	.	2A/	.	2d\	.
=177-	=177-	=177-	=177-	=177-	=177-
!	!	!	!	!LO:TX:a:t=P:problem:# above	!
1.AA	-men	1.A	-me(n)	2c#X/	.
.	.	.	.	2e\	-men
.	.	.	.	2e\	A-
=178-	=178-	=178-	=178-	=178-	=178-
*	*	*	*ij	*	*
2FF/	A-	2d\	a-	1d	.
2GG/	.	2.e\	.	.	.
2AA/	.	.	.	2c#y/	.
.	.	4A/	.	.	.
=179-	=179-	=179-	=179-	=179-	=179-
*M2/1	*	*M2/1	*	*M2/1	*
*met(C|)	*	*met(C|)	*	*met(C|)	*
2D/	-men	2.A/	-me(n)	2d\	-men
*	*Xij	*	*	*	*Xij
2D/	A-	.	.	2f\	A-
.	.	8d\L	a-	.	.
.	.	8c\J	.	.	.
2GG/	.	2B-X\	.	2g\	.
2FF/	-men	2A/	.	2.a\	.
=180-	=180-	=180-	=180-	=180-	=180-
1GG	A-	2.B-y\	.	.	.
.	.	.	.	8g\L	.
.	.	.	.	8f\J	.
.	.	.	.	1g\	.
.	.	4c\	.	.	.
[1Dl	-men	1d	.	.	.
!	!	!	!	!LO:TX:a:t=P:problem:# above	!
.	.	.	.	4f#X\	.
.	.	.	.	4e\	.
=181-	=181-	=181-	=181-	=181-	=181-
!	!	!	!	!LO:TX:a:t=P:problem:# above	!
0D]	.	0dl;;	-men	0f#Xl;;	-men.
*	*	*	*Xij	*	*
==	==	==	==	==	==
*-	*-	*-	*-	*-	*-
!!!system-decoration: [(s1,s2,s3)]
!!!RDF**kern: > = above
!!!RDF**kern: < = below
!!!RDF**kern: l = terminal long
!!!ENC: Mateusz Solarz
!!!END: 2021-06-28
!!!ENC: Andrzej Kubiczek
!!!END: 2021-08-12
